src/assets/logos/infact_logo_white.svg

<svg height="60" viewBox="0 0 153 60" width="153" xmlns="http://www.w3.org/2000/svg"><g style="stroke:#fff;stroke-width:2;fill:none;fill-rule:evenodd;stroke-linecap:round;stroke-linejoin:round" transform="translate(1 1)"><g transform="translate(96.030178)"><path d="m23.9240055 48.611797c-1.4877915.7478738-3.1028807 1.1138546-4.8373114 1.1138546-6.030727 0-10.92373114-4.8930041-10.92373114-10.9237312 0-6.030727 4.89300414-10.6054869 10.92373114-10.6054869 3.7711934 0 7.096845 1.6150891 9.0620027 4.5190672"/><path d="m47.5058985 57.5624143v-28.7016461h6.794513v-8.5408779h-6.794513v-20.24828536h-9.00631v20.23237316h-3.5325103l-.0954733 8.170919c-3.4290809-5.0600823-9.1813443-8.39369-15.7849108-8.39369-10.50205761 0-19.03895747 8.1947874-19.03895747 18.696845s8.53689986 18.8718793 19.03895747 18.8718793l19.4128944-.0875171v-28.9124829l-.1272977-.151166h-3.4052126"/></g><path d="m90.6359863 20.7654321.2227243 36.6060667-20.2758591.0715739c-5.210156 0-9.4100985-.8747919-12.806643-4.4693916-3.3806356-3.6423156-4.8681152-8.2389496-4.8681152-13.6944703 0-5.3600889 1.439753-9.7976698 4.9078874-13.4002221 3.2772279-3.6025523 7.4453527-5.0896986 10.1737245-5.0896986zm-7.3498994 7.8413169-11.8441562.0556686c-2.9749593 0-5.337427.7952654-7.2942184 2.8788608-1.9886092 2.0835953-2.9272327 4.7159238-2.9272327 7.8174589 0 3.173109.9943046 5.8292955 2.9749593 7.9367488 1.9886092 2.1074533 4.3192591 3.149251 7.3737628 3.149251h11.7168852z"/><path d="m40.8943759 28.6459534h42.3463648m7.4190673 0v-7.9998629h-48.8902607v-11.83072699l20.8449932-.15116598v-8.48120713l-29.7876544-.15116598v57.22825788"/><path d="m32.81893 37.2823045c0-3.5245542-.4216735-5.6329218-1.4161865-7.0013717-1.0024692-1.4241427-2.9596708-1.7423868-5.4578875-1.7980796h-8.1947874l.0002993.1812446-.0241676 28.8267115h-8.73580249v-36.8685871l19.30946499-.0954732c4.3679013 0 7.6935528 1.2411522 10.1758574 3.8984911 2.1163237 2.2356652 3.0312757 5.8636488 3.0312757 10.9237311v22.1418381h-8.6085048l-.0795611-.1514038z"/><path d="m0 57.4828532h8.91083676v-57.24417007h-8.91083676z"/></g></svg>

<?xml version="1.0" encoding="UTF-8"?>
<svg width="153px" height="60px" viewBox="0 0 153 60" version="1.1" xmlns="http://www.w3.org/2000/svg" xmlns:xlink="http://www.w3.org/1999/xlink">
    <!-- Generator: Sketch 50.2 (55047) - http://www.bohemiancoding.com/sketch -->
    <title>infact_small_W</title>
    <desc>Created with Sketch.</desc>
    <defs></defs>
    <g id="logo" stroke="none" stroke-width="1" fill="none" fill-rule="evenodd" stroke-linecap="round" stroke-linejoin="round">
        <g id="new" transform="translate(-245.000000, -1100.000000)" stroke="#FFFFFF" stroke-width="2">
            <g id="logo_w2" transform="translate(245.000000, 1100.000000)">
                <g id="infact_small_W" transform="translate(1.000000, 1.000000)">
                    <g id="CT" transform="translate(96.030178, 0.000000)">
                        <path d="M23.9240055,48.611797 C22.436214,49.3596708 20.8211248,49.7256516 19.0866941,49.7256516 C13.0559671,49.7256516 8.16296296,44.8326475 8.16296296,38.8019204 C8.16296296,32.7711934 13.0559671,28.1964335 19.0866941,28.1964335 C22.8578875,28.1964335 26.1835391,29.8115226 28.1486968,32.7155007" id="C"></path>
                        <path d="M47.5058985,57.5624143 L47.5058985,28.8607682 L54.3004115,28.8607682 L54.3004115,20.3198903 L47.5058985,20.3198903 L47.5058985,0.0716049383 L38.4995885,0.0716049383 L38.4995885,20.3039781 L34.9670782,20.3039781 L34.8716049,28.4748971 C31.442524,23.4148148 25.6902606,20.0812071 19.0866941,20.0812071 C8.58463649,20.0812071 0.0477366255,28.2759945 0.0477366255,38.7780521 C0.0477366255,49.2801097 8.58463649,57.6499314 19.0866941,57.6499314 L38.4995885,57.5624143 L38.4995885,28.6499314 L38.3722908,28.4987654 L34.9670782,28.4987654"></path>
                    </g>
                    <path d="M90.6359863,20.7654321 L90.8587106,57.3714988 L70.5828515,57.4430727 C65.3726955,57.4430727 61.172753,56.5682808 57.7762085,52.9736811 C54.3955729,49.3313655 52.9080933,44.7347315 52.9080933,39.2792108 C52.9080933,33.9191219 54.3478463,29.481541 57.8159807,25.8789887 C61.0932086,22.2764364 65.2613334,20.7892901 67.9897052,20.7892901 L90.6359863,20.7654321 Z M83.2860869,28.606749 L71.4419307,28.6624176 C68.4669714,28.6624176 66.1045037,29.457683 64.1477123,31.5412784 C62.1591031,33.6248737 61.2204796,36.2572022 61.2204796,39.3587373 C61.2204796,42.5318463 62.2147842,45.1880328 64.1954389,47.2954861 C66.1840481,49.4029394 68.514698,50.4447371 71.5692017,50.4447371 L83.2860869,50.4447371 L83.2860869,28.606749 Z" id="A"></path>
                    <path d="M40.8943759,28.6459534 L83.2407407,28.6459534 M90.659808,28.6459534 L90.659808,20.6460905 L41.7695473,20.6460905 L41.7695473,8.81536351 L62.6145405,8.66419753 L62.6145405,0.182990398 L32.8268861,0.031824417 L32.8268861,57.2600823" id="F"></path>
                    <path d="M32.81893,37.2823045 C32.81893,33.7577503 32.3972565,31.6493827 31.4027435,30.2809328 C30.4002743,28.8567901 28.4430727,28.538546 25.944856,28.4828532 L17.7500686,28.4828532 L17.7503679,28.6640978 L17.7262003,57.4908093 L8.99039781,57.4908093 L8.99039781,20.6222222 L28.2998628,20.526749 C32.6677641,20.526749 35.9934156,21.7679012 38.4757202,24.4252401 C40.5920439,26.6609053 41.5069959,30.2888889 41.5069959,35.3489712 L41.5069959,57.4908093 L32.8984911,57.4908093 L32.81893,57.3394055 L32.81893,37.2823045 Z" id="N"></path>
                    <polygon id="I" points="0 57.4828532 8.91083676 57.4828532 8.91083676 0.238683128 0 0.238683128"></polygon>
                </g>
            </g>
        </g>
    </g>
</svg>
